X: 16562
T: Hamilton House
R: jig
M: 6/8
K: Gmajor
|:[G,3D3B3g3] dBd|{d}c2 B A2 c|BdB {B}A2 G|F3/2E/F D3|
[G,3D3B3g3] dBd|{d}c2 B Ace|dcB AGF|G3 G3:|
D3 EDE|DGB d2 d|{d}c2 B {B}A2 G|FEF D2 D|
E2 c cdc|dBG G2 g|dBG cAF|G3 G2 B/c/|
dBd ege|dBd {d}c2A|dBG EFG|ABG FED|
dBd ege|dBd {d}c2 A|dBG DEF|G3 G3||

